X:414
T:Leap Year
N:"Moderate"
N:Irish title: blia.dain .bisi.g
B:O'Neill's 414
Z:Transcribed by henrik.norbeck@mailbox.swipnet.se
M:6/8
L:1/8
K:G
B/c/|ded def|fee ege/e/|dBG GEF|AGE ED B/c/|
ded def|fee eHge/e/|dBG GEF|GAG G2||
B/c/|ded efg|fed fedc|dcB dcBA|BAG gFED|
BAG dcBA|dcB Hege|dBG AGEF|G3 z2||
